assets/premium-header-sidebar-hide.svg

<svg fill="none" height="44" viewBox="0 0 44 44" width="44" xmlns="http://www.w3.org/2000/svg"><circle cx="22" cy="22" fill="#054f77" r="22"/><path d="m15.2788 27.3153c-.3645.3645-.3818 1.0154.0087 1.3972.3818.3819 1.0327.3732 1.3971.0087l5.3111-5.3197 5.3196 5.3197c.3732.3732 1.0154.3732 1.3972-.0087.3732-.3905.3819-1.024 0-1.3972l-5.311-5.3196 5.311-5.3111c.3819-.3731.3819-1.0153 0-1.3971-.3905-.3732-1.024-.3819-1.3972-.0087l-5.3196 5.3197-5.3111-5.3197c-.3644-.3645-1.024-.3818-1.3971.0087-.3819.3818-.3732 1.0327-.0087 1.3971l5.3197 5.3111z" fill="#fff"/></svg>

<svg width="44" height="44" viewBox="0 0 44 44" fill="none" xmlns="http://www.w3.org/2000/svg">
<circle cx="22" cy="22" r="22" fill="#054F77"/>
<path d="M15.2788 27.3153C14.9143 27.6798 14.897 28.3307 15.2875 28.7125C15.6693 29.0944 16.3202 29.0857 16.6846 28.7212L21.9957 23.4015L27.3153 28.7212C27.6885 29.0944 28.3307 29.0944 28.7125 28.7125C29.0857 28.322 29.0944 27.6885 28.7125 27.3153L23.4015 21.9957L28.7125 16.6846C29.0944 16.3115 29.0944 15.6693 28.7125 15.2875C28.322 14.9143 27.6885 14.9056 27.3153 15.2788L21.9957 20.5985L16.6846 15.2788C16.3202 14.9143 15.6606 14.897 15.2875 15.2875C14.9056 15.6693 14.9143 16.3202 15.2788 16.6846L20.5985 21.9957L15.2788 27.3153Z" fill="white"/>
</svg>
